X:18275
T:Vetter Hannes - Rheinländer
B:"Schule für böhmischen Bock", Band I, R.Lughofer, Eigenverlag, Kremsmünster 1998 
Z:abc transcription Simon Wascher
N:please mail errors to: simon.wascher@chello.at
M:2/4
L:1/16
K:G
Bd|G2G2 G2A^F|G2GB d2Bd|G2G2 A2AF|G6Bd|
G2G2 G2AF|G2GB d2Bd|G2G2 A2AF|G6||
|:G2|Fddd d2c2|B4D2B2|A4D2A2|GABc d2D2|
Fddd d2c2|B4D2B2|A3G FGAF|G2B2G2:|
|:G2|B4A2B2|d2c2 A3B|c3c B2c2|e2d2 B2Bc|
d4G4|e6G2|F2Fe dcBA|G2B2G2:|

